X:1
T:Les ridées de Lanvaudan
C:François Champs
R:reel
M:2/2
K:Em
|: B2eB dBAc | BEED EGFG | AcBA BEED |
   B2eB dBAc | BEED EGFG |1 AcBA GEED :|2 AcBA GEEF
|: G2GF GDB,D | G3B AGF2- | FGAc BEEF |
   GDB,D G2GF | G3B AGF2- |1 FGAc BEEF :|2 FGAc BEED
